X:1
T:Lady Margaret and Lord William
M:4/4
L:1/8
K:G
 B3/2 c/2| d2 B3/2 c/2 d2 B3/2 d/2| e2 g3/2 f/2 e2 d3/2 d/2| e3/2 d/2 eg f2 ge|\
 d6| d3/2 e/2| g2 g3/2 c/2 B3/2 A/2 B3/2 c/2| d3/2 e/2 dB GF ED| G3/2 A/2 Bd cB A3/2 G/2|\
 G6||
